X: 37498
T: Sligo Maid, The
R: reel
M: 4/4
K: Adorian
A2BA Bdeg|dBgB AGED|G2BG AGBG|DG~G2 DGBG|
A/A/A BA Beeg|dBgB AGED|~B2GB {AB}A2GE|DEGA BAAG|
A2BA Bdeg|dBgB AGED|G2BG dGBG|DG~G2 DGBG|
A/A/A BA Bdeg|dBgB AGED|~B2GB A2GE|DEGA BAA^g|
|:(3aba gb a2ga|(3bag (3agf gedg|eg{a}gf gage|dgfg dgbg|
ea{b}a^g a2=ga|(3bag (3agf gedf|egg/g/g edBe|1 dBgB BAA^g:|2 dBgd BAGB||

